32x32/apps/com.github.alonsoenrique.quotes.svg

<svg height="32" width="32" xmlns="http://www.w3.org/2000/svg"><path d="m3.556 4c-.862 0-1.556.888-1.556 1.75v17.5c0 .862.694 1.717 1.556 1.75h12.944l3.5 4 3.5-4h4.944c.862 0 1.556-.888 1.556-1.75v-17.5" fill="#8e8e8e"/><path d="m2 23.25v1c0 .862.694 1.717 1.555 1.75h12.945l3.5 4 3.5-4h4.945c.862 0 1.555-.888 1.555-1.75v-1c0 .862-.693 1.75-1.555 1.75h-4.945l-3.5 4-3.5-4h-12.945c-.862-.033-1.556-.888-1.556-1.75z" opacity=".2"/><path d="m3.555 4c-.862 0-1.555.888-1.555 1.75v1c0-.862.693-1.75 1.555-1.75h24.89c.862 0 1.555.888 1.555 1.75v-1c0-.862-.693-1.75-1.555-1.75z" fill="#fff" opacity=".1"/><g fill="none" stroke-linecap="round" stroke-width="2.999811"><path d="m21.561 21.49-3-1.5m-3-10.499c3.581 0 3 3.015 3 6 0 2.984.516 6.09-3 6-3.504 0-3-3.016-3-6 0-2.985-.634-6 3-6" opacity=".2" stroke="#000"/><path d="m21.561 20.49-3-1.5m-3-10.499c3.581 0 3 3.015 3 6 0 2.984.516 6.09-3 6-3.504 0-3-3.016-3-6 0-2.985-.634-6 3-6" stroke="#f4f4f7"/></g></svg>

<svg height="32" width="32" xmlns="http://www.w3.org/2000/svg">
    <path d="M3.556 4C2.694 4 2 4.888 2 5.75v17.5c0 .862.694 1.717 1.556 1.75H16.5l3.5 4 3.5-4h4.944c.862 0 1.556-.888 1.556-1.75V5.75" fill="#8e8e8e"/>
    <path d="M2 23.25v1c0 .862.694 1.717 1.555 1.75H16.5l3.5 4 3.5-4h4.945c.862 0 1.555-.888 1.555-1.75v-1c0 .862-.693 1.75-1.555 1.75H23.5L20 29l-3.5-4H3.555c-.862-.033-1.556-.888-1.556-1.75z" opacity=".2"/>
    <path d="M3.555 4C2.693 4 2 4.888 2 5.75v1C2 5.888 2.693 5 3.555 5h24.89C29.307 5 30 5.888 30 6.75v-1C30 4.888 29.307 4 28.445 4z" fill="#fff" opacity=".1"/>
    <g fill="none" stroke-linecap="round" stroke-width="3">
        <path d="m21.561 21.49-3-1.5m-3-10.499c3.581 0 3 3.015 3 6 0 2.984.516 6.09-3 6-3.504 0-3-3.016-3-6 0-2.985-.634-6 3-6" opacity=".2" stroke="#000"/>
        <path d="m21.561 20.49-3-1.5m-3-10.499c3.581 0 3 3.015 3 6 0 2.984.516 6.09-3 6-3.504 0-3-3.016-3-6 0-2.985-.634-6 3-6" stroke="#f4f4f7"/>
    </g>
</svg>
